X:1
T:Hope of Glory
T:Hope of Glory
T:Scott Werdebaugh
T:Scott Werdebaugh, 2018
T:© 2018 by Scott Werdebaugh &amp; New Heart Music - May be freely copied and used for Christian worship &amp; devotions with no alterations. All other rights reserved.
T:© 2018 by Scott Werdebaugh &amp; New Heart Music - May be freely copied and used for Christian worship &amp; devotions with no alterations. All other rights reserved.
C:Scott Werdebaugh
Z:© 2018 by Scott Werdebaugh & New Heart Music - May be freely copied and used for
Z:Christian worship & devotions with no alterations. All other rights reserved.
%%score ( 1 2 ) 3
L:1/8
Q:1/4=104
M:3/4
K:D
V:1 treble 
V:2 treble 
V:3 bass 
V:1
"^Contemplatively" [FA][FA] | [DF]2 [DF]2 [EG]2 [FA]2 | ([DF][CE]) D2 D2 [CE]2 | [DF]6 [FA]2 | %4
w: 1.~When \-|life brings you to|the * end of your|rope, When|
w: 2.~Know that|when you have lost|your * way \- to-|day, Have|
 [GB]2 [GB]2 [Ac]2 [Fd]2 | [FA][DF] [FA]2 [EG]2 [DF]2 | E6 z2 | (3[FA]2 [DF]2 [EG]2 [FA]3 [FA] | %8
w: you feel as though|you can no long- er|cope,|Re- mem- ber this, your|
w: faith \- in God,|in \- Him your life|lay,|Seek \- His face, o-|
 (3[Gd]2 [Gc]2 [Gd]2 [Ac]4 | (3([Gd]2 [Gc]2) [GB]2 [FA]4 | [FA]2 [GB]4 [Gd]2 | [Ge]4 [Gd]4 | %12
w: won- der- ful hope:|Christ * in you,|the hope of|glo \-|
w: bey \- His Word,|Con- * fess all|your sin, Make|Him your|
 [Fd]6 z2 ||"^Refrain" [Gd][Gd] ([Gd]2 [Gc]2) [GB]2 | [FA]6 z2 | [FA][FA] [GB]2 [FA]2 [CG]2 | %16
w: ry!||||
w: Lord.||||
 [DF]6 z2 | [Gd]2 [Gc]2 [GB]2 [Fd]2 | [FA]2 [GB]2 [FA]2 [DF]2 | [CE]6 z2 | %20
w: ||||
w: ||||
 [FA]2 [DF]2 [EG]2 [FA]2 | [FA]2 [Fd]2 [Ac]2 [Fd]2 | [GB]6 z2 | [Gd]2 [Ec]2 [GB]2 [FA]2 | %24
w: ||||
w: ||||
 [DF][DF] ([CG]2 [CF]2) [CE]2 | D6 z2 |] %26
w: ||
w: ||
V:2
 x2 | x8 | x2 D2 D2 x2 | x8 | x8 | x8 | (D4 C2) x2 | x8 | x8 | x8 | x8 | x8 | x8 || x8 | x8 | x8 | %16
 x8 | x8 | x8 | x8 | x8 | x8 | x8 | x8 | x8 | D6 x2 |] %26
V:3
 [D,D][D,D] | [D,A,]2 [D,A,]2 [A,,C]2 [D,D]2 | ([D,A,][A,,A,]) [D,F,]2 [D,F,]2 [A,,A,]2 | %3
w: |||
 [D,A,]6 [D,D]2 | [G,D]2 [G,D]2 [A,E]2 [D,A,]2 | [D,D][D,A,] [D,D]2 [A,,C]2 [D,A,]2 | [A,,A,]6 z2 | %7
w: ||||
 (3[D,D]2 [D,A,]2 [A,,C]2 [D,D]3 [D,D] | (3[G,B,]2 [A,E]2 [G,B,]2 [A,E]4 | %9
w: ||
 (3([G,B,]2 [A,E]2) [G,D]2 [D,D]4 | [D,D]2 [G,D]4 [G,B,]2 | [A,E]4 [G,D]4 | [D,A,]6 z2 || %13
w: ||||
 [G,B,][G,B,] ([G,B,]2 [A,E]2) [G,D]2 | [D,D]6 z2 | [D,A,][D,A,] [G,D]2 [D,D]2 [E,A,]2 | %16
w: What a bless- * èd|hope,|what a glo- ri- ous|
 [D,A,]6 z2 | [G,B,]2 [A,E]2 [G,D]2 [D,A,]2 | [D,D]2 [G,D]2 [D,D]2 [D,A,]2 | [A,,A,]6 z2 | %20
w: hope;|Our faith in God,|though life seems a|mess;|
 [D,D]2 [D,A,]2 [A,,C]2 [D,D]2 | [D,D]2 [D,A,]2 [D,F,]2 [D,A,]2 | [G,D]6 z2 | %23
w: Liv- ing in God,|what peace we will|find,|
 [G,B,]2 [A,,A,]2 [G,,D]2 [D,D]2 | [D,A,][D,A,] ([A,,E,]2 [A,,A,]2) [A,,G,]2 | [D,F,]6 z2 |] %26
w: Free- dom in Christ,|and a God * so|kind!|

